svg/regular/bx-sort-z-a.svg

<svg xmlns="http://www.w3.org/2000/svg" width="24" height="24"><path d="M19.707 14.707A1 1 0 0 0 19 13h-7v2h4.586l-4.293 4.293A1 1 0 0 0 13 21h7v-2h-4.586l4.293-4.293zM6 3.99l-4 4h3v12h2v-12h3zM17 3h-2c-.417 0-.79.259-.937.649l-2.75 7.333h2.137L14.193 9h3.613l.743 1.981h2.137l-2.75-7.333A1 1 0 0 0 17 3zm-2.057 4 .75-2h.613l.75 2h-2.113z"/></svg>

<svg xmlns="http://www.w3.org/2000/svg" width="24" height="24" viewBox="0 0 24 24"><path d="M19.707 14.707c.286-.286.372-.716.217-1.09C19.77 13.244 19.404 13 19 13h-7v2h4.586l-4.293 4.293c-.286.286-.372.716-.217 1.09C12.23 20.756 12.596 21 13 21h7v-2h-4.586L19.707 14.707zM6 3.99L2 7.99 5 7.99 5 19.99 7 19.99 7 7.99 10 7.99zM17 3h-2c-.417 0-.79.259-.937.649l-2.75 7.333h2.137L14.193 9h3.613l.743 1.981h2.137l-2.75-7.333C17.79 3.259 17.417 3 17 3zM14.943 7l.75-2h.613l.75 2H14.943z"/></svg>
